X:13872
T:Rachel Reay's Rant. JMT 057
M:C
L:1/8
Q:200
S:J.Moore,Tyneside,1841.(42b)
R:Rant
O:England
A:Northumbria
Z:C.G.P
K:D
A,|D2FAd2Ac|d2fde2cA|d2AF B-AGF|E-FGA F-D D:|!
|:A|d2fd f-afd|g2bge2cA|d2fd f-afd|e-gfe f-ddA|!
d2fdf2af|g2bge2cA|d2Ad B-AGF|E-FGA F-D D:|]
